X:1
T:Title
%%score { 1 | 2 }
L:1/8
Q:1/4=114
M:6/4
K:G
V:1 treble nm="Grand Piano"
V:2 bass 
V:1
 [B,D]2 [_B,^C]2 [=B,D]2 [=CE]2 [EG]2 E2 | D2 G2 A2 B6 | [FA]2 [FA]2 [FA]2 [GB]4 [FA]2 | %3
w: J.~Lincoln~Hall * * * * *|||
 [FA]2 [DG]4- [DG]6 | [B,D]2 [_B,^C]2 [=B,D]2 [=CE]2 [EG]2 E2 | D2 G2 A2 B6 | %6
w: |||
 [FA]2 [FA]2 [FA]2 [GB]4 [FA]2 | [FA]2 [DG]4- [DG]6 | [Ec]2 [Ec]2 [Ec]2 [Ec]2 [DB]2 [^C_B]2 | %9
w: |||
 [DB]2 [B,G]2 [_B,E]2 [=B,D]6 | [Ec]2 [Ec]2 [Ec]2 [Ec]2 [DB]2 [^C_B]2 | [DB]2 [DB]2 [Ec]2 [DB]6 | %12
w: |||
 [B,D]2 [_B,^C]2 [=B,D]2 [=CE]2 [EG]2 E2 | D2 G2 A2 B6 | [FA]2 [FA]2 [FA]2 [GB]4 [FA]2 | %15
w: |||
 A2 G4- G6 | d2 e2 d2 B4 G2 | B6 [AB]6 | [GB]2 [Gc]2 [GB]2 [EG]4 E2 | G12 | d2 e2 d2 B4 G2 | %21
w: ||||||
 A2 A2 B2 c6 | [GB]2 [Ge]2 [Gd]2 [DGB]4 [B,G]2 | [CFA]6 [G,B,DG]6 |] %24
w: |||
V:2
 [G,,G,]2 [G,,G,]2 [G,,G,]2 [C,G,]2 [C,G,]2 [E,G,C]2 | [G,B,]2 [G,B,]2 [D,F,C]2 [G,D]6 | %2
 [D,C]2 [D,C]2 [D,C]2 [D,D]4 [D,C]2 | [G,C]2 [G,B,]4- [G,B,]6 | %4
 [G,,G,]2 [G,,G,]2 [G,,G,]2 [C,G,]2 [C,G,]2 [E,G,C]2 | [G,B,]2 [G,B,]2 [D,F,C]2 [G,D]6 | %6
 [D,C]2 [D,C]2 [D,C]2 [D,D]4 [D,C]2 | [G,C]2 [G,B,]4- [G,B,]6 | %8
 [C,G,]2 [C,G,]2 [C,G,]2 [G,,G,]2 [G,,G,]2 [G,,G,]2 | [G,,G,]2 [G,,G,]2 [G,,G,]2 [G,,G,]6 | %10
 [C,G,]2 [C,G,]2 [C,G,]2 [C,G,]2 [G,,G,]2 [G,,G,]2 | [G,,G,]2 [G,,G,]2 [G,,G,]2 [G,,G,]6 | %12
 [G,,G,]2 [G,,G,]2 [G,,G,]2 [C,G,]2 [C,G,]2 [E,G,C]2 | [G,B,]2 [G,B,]2 [D,F,C]2 [G,D]6 | %14
 [D,C]2 [D,C]2 [D,C]2 [D,D]4 [D,C]2 | [G,CF]2 [G,B,D]4- [G,B,D]6 | %16
 [G,B,G]2 [G,CG]2 [G,B,G]2 [G,DG]4 [G,B,]2 | [G,DG]6[K:bass] [F,^D]6 | %18
 [E,E]2 [E,E]2 [E,B,]2 [C,C]4 [C,G,C]2 | [G,B,D]12 | [G,B,G]2 [G,CG]2 [G,B,G]2 [G,DG]4 [B,D=F]2 | %21
 [CE]2 [CE]2 [B,E^G]2 [A,EA]6 | [D,D]2 [D,B,]2 [D,B,]2 D,4 D,2 | D,6 G,,6 |] %24

